src/assets/images/logos/Dennys_logo.svg

<svg xmlns="http://www.w3.org/2000/svg" width="74" height="37" fill="none"><path d="M36.6 36L68 28.6L72.2 9.5L36.6 1L1 9.5L5.2 28.6" fill="#fd0"/><path d="M36.6 36.9L4.4 29.3 0 8.9 36.6.1l36.6 8.8-4.4 20.4-32.2 7.6zm-30.7-9l30.7 7.3 30.7-7.3 3.9-17.7-34.6-8.4L2 10.1l3.9 17.8z" fill="#FDBD10"/><g fill="#CF9810"><path d="M28.3 18.4c-.2-3.3-.8-4.9-1.6-6-1.3-1.8-5-2.4-6.5.6-.7 1.3-.9 3.1-.7 5.4.3 2.7 1 4.7 2.3 5.7 1.5 1.3 3.7 1 5-.2 1-1 1.6-2.7 1.5-4.9l-3.4.3c0 .6-.2 1.1-.2 1.3-.1.4-.5.7-.8.1-.1-.3-.3-.9-.4-1.8l4.8-.5zm-4.6-4.3c.5 0 .7 1.2.8 1.8l-1.4.1c0-.9.3-1.8.6-1.9zm34.2-2.9c0 .9.4 1.6 1.4 2 0 .1-.7 1.4-.8 1.7-.2.5.3.9.8.6-.2.1 2.6-2.2 2.8-3.7v-.5C62 9.8 61 9 59.9 9c-1 0-2 .9-2 2.2"/><path d="M37.7 22.5l-.3-8.2c-.1-3.4-2-3.7-2.7-3.6-.8 0-1.5.4-2 1l-1.2-.7-4 .2 1.1 1.8.4 9.6-1 1.9 5.1-.2-.3-8.2c0-1.1.5-.9.6 0l.3 8.1 4.8-.1-.8-1.6zm29.4-4.1l.8-4c-1.6-1.2-2.6-1.6-4-1.6-2.5 0-4.1 1.9-4.1 3.9 0 1.6 1 2.7 1.9 4l.6.9c.3.5-.1.9-.6.8-.4-.1-1.5-.8-2.7-2.4l-.9 4.6c1.4 1.5 3.3 1.7 4.1 1.7 2.6 0 4.4-2.3 4.4-4.4 0-1.4-.6-2.5-1.8-3.8 0 0-.5-.6-.6-.8-.5-.7 0-1.1.4-1s1.4.7 2.5 2.1zM10 10.6l-4.7.8 1.6 1.9 2 11.5-.9 2.4 5.6-1c4-.7 6.1-3.9 5.2-9-.8-5-3.1-7.5-8.8-6.6zm3 11.5l-1.3-7.7h.3c1-.2 1.8.9 2.2 3.6.3 1.7.4 3.9-.9 4.1H13zm39.9-10.4l-.8 1.2.4 5.2 1.1-4.6-.7-1.8 6.1.4-1.3 1.8-5 13.9-5.1-.4 1.6-2 .5-1.9-2-10.4-1.2-2"/><path d="M47.1 22.2l.2-7.5c.1-2.4-.9-3.8-2.5-3.8-.8 0-1.5.3-2.1.9l-.8-.8-4.1-.1 1 1.9-.3 9.6-1 1.8 4.9.2.2-8.2c0-1 .6-.9.6 0l-.2 8.2 5.4.3-1.3-2.5z"/></g><g fill="#fff"><path d="M27.6 17.9c-.2-3.3-.8-4.9-1.6-6.1-1.3-1.8-5-2.4-6.5.6-.7 1.3-.9 3.1-.7 5.4.3 2.7 1 4.7 2.3 5.7 1.5 1.3 3.7 1 5-.2 1-1 1.6-2.7 1.5-4.9l-3.4.3c0 .6-.2 1-.2 1.3-.1.4-.5.7-.8.1-.1-.3-.3-.9-.4-1.8l4.8-.4zM23 14c.5 0 .7.8.8 1.4l-1.2.1c-.1-1 .2-1.5.4-1.5zm34.4-3.5c0 1 .5 1.6 1.3 1.9 0 .1-.6 1.4-.7 1.8-.2.5.3.9.8.6.4-.3 2.5-1.5 2.8-3.7v-.5c0-1.4-1-2.3-2.2-2.3-1 0-2 .9-2 2.2"/><path d="M37 21.9l-.3-8.2c-.1-3.4-2-3.7-2.7-3.6-.8 0-1.5.4-2 1v-.7l-5.1.2 1.1 1.8.4 9.6-1 1.9 5.1-.2-.3-8.2c0-1.1.5-.9.6 0l.3 8.1 4.8-.1-.9-1.6zm29.6-4.2l.8-4c-1.6-1.2-2.6-1.6-4-1.6-2.5 0-4.1 1.9-4.1 3.9 0 1.6.8 2.7 1.8 4l.6.9c.3.5.1.9-.5.8-.4-.1-1.5-.8-2.7-2.4l-.9 4.5c1.4 1.5 3 1.9 4.2 1.9 3.1 0 4.4-2.6 4.4-4.5 0-1.4-.7-2.4-1.8-3.8 0 0-.5-.6-.6-.8-.5-.7 0-1.1.4-1s1.4.7 2.4 2.1zM9.3 10.1l-4.7.8 1.6 1.9 2 11.5-.9 2.3 5.6-1c4.4-.7 6.1-3.8 5.2-9-.8-4.9-3.2-7.4-8.8-6.5zm3 11.5L11 13.9h.3c1-.2 1.8.9 2.2 3.6.3 1.7.4 3.9-.9 4.1h-.3zM52.4 11l-1 1.7.5 4.9 1.2-4.8-.8-1.8 6.5.5-1.6 1.8-5 13.9-5.2-.5 1.7-2 .4-1.9-2-10.4-1.2-2"/><path d="M46.5 22.3l.2-8.2c.1-2.4-.9-3.8-2.5-3.8-.8 0-1.5.3-2.1.9v-.7l-5.1-.2 1 1.9-.3 9.6-.8 1.8 4.8.2.2-8.2c0-1 .6-.9.6 0l-.2 8.2 5.1.3-.9-1.8z"/></g><path d="M23.8 24c-2.5.2-4.2-2-4.5-6.2-.4-4.2.9-6.8 3.3-7 2.7-.2 4.2 1.7 4.6 5.8 0 .3.1.6.1.9l-5 .5v.5c.2 1.7.6 2.5 1.3 2.5.5 0 .9-.8.9-1.8l2.6-.2c.1 2.9-1.2 4.8-3.3 5zm.5-8.2c-.1-1.5-.6-2.3-1.3-2.2-.6.1-1 .9-.8 2.4l2.1-.2zm34.2-1.4c-.1.1-.2.1 0 0 .2-.7.8-2.2.8-2.2-.1 0-.3-.1-.5-.2-1-.4-1-1.6-1-1.8.1-.8.8-1.7 1.9-1.5 1 .1 1.6 1 1.5 2.3-.4 2-1.7 2.7-2.7 3.4zm2.7 7.7c.6.1 1-.2 1.1-.7.1-.4-.4-1.1-.9-1.7-1.2-1.6-1.9-2.8-1.6-4.4.4-2 2.3-3.2 4.5-2.8.9.2 1.7.6 2.6 1.3l-.6 2.9c-.7-.8-1.5-1.5-2.1-1.6-.9-.2-1.5.7-.8 1.6.2.3.4.5.7.8 1.3 1.6 2 2.6 1.6 4.4-.5 2.4-2.5 3.6-5 3.1-1-.2-1.8-.7-2.7-1.5l.7-3.4c1 1.2 1.9 1.9 2.5 2zm-24 1.1l-.6-1.2-.3-8.3c-.1-2.2-.9-3.3-2.3-3.2-1.1 0-1.8.7-2.4 2.2l-.1-1.9-3.9.2.8 1.3.4 9.8-.7 1.4 3.9-.2-.3-7.7c0-.8.3-1.2.7-1.3.4 0 .7.3.7 1.1l.3 7.8h3.8zM9.3 10.5l-3.9.7 1.2 1.4 2 11.8-.6 1.8 4.8-.8c4.2-.7 5.7-3.6 4.9-8.5-.7-4.5-2.6-7.3-8.4-6.4zm3.4 11.4c-.1 0-.2 0-.7.1l-1.4-8.5c.5-.1.7-.1.7-.1 1.4-.2 2.3 1.3 2.7 3.9.3 2.7.1 4.4-1.3 4.6zm45.2-10l-5-.4.6 1.3-1.8 7.2-.8-7.4.8-1.3-5-.4.8 1.4 2.1 10.5-.6 2.1-1.2 1.5 4.1.3 4.9-13.6 1.1-1.2zM46.8 23.6l-.7-1.2.2-8.3c.1-2.2-.7-3.3-2.1-3.4-1.1 0-1.9.6-2.5 2l.1-1.9-3.9-.1.7 1.4-.3 9.8-.6 1.3 3.7.1.2-7.7c0-.8.4-1.2.8-1.2s.7.4.6 1.2l-.2 7.8 4 .2z" fill="#EC1C24"/><g fill="#B01117"><path d="M23.9 14.3c.2.4.3.9.3 1.5l-1.2.1v.8l2.1-.2c-.1-1.5-.5-2.2-1.2-2.2zm-.2 6.6c-.1 0-.1 0 0 0 .1.5.5.7.8.7.5 0 .9-.8.9-1.8l1.7-.2v-.8l-2.6.2c0 1.1-.3 1.9-.8 1.9m-3.6-2.4c-.4-4.2.9-6.8 3.3-7 .8-.1 1.6.1 2.2.4-.8-.9-1.8-1.2-3-1.1-2.5.2-3.7 2.8-3.3 7 .3 3 1.2 4.9 2.6 5.7-1-1-1.6-2.7-1.8-5zm38.3-7.4c.1-.8.8-1.7 1.9-1.5.3 0 .6.2.8.3-.2-.7-.7-1.1-1.4-1.2-1-.2-1.7.7-1.9 1.5 0 .2 0 1.2.6 1.6v-.7zm1.7 2.1c-.1 0-.9-.4-1-.4l-.7 1.7s0 .1.1 0l1.6-1.3zm1 6.1c-.6-1-.9-1.9-.7-3 .4-2 2.3-3.2 4.5-2.8.6.1 1.3.4 1.9.8l.1-.4c-.9-.7-1.8-1.1-2.6-1.3-2.2-.5-4.1.7-4.5 2.8-.2 1.4.3 2.5 1.3 3.9zm-1.7 1.9c.8 1 1.8 1.7 2.4 1.9.6.1 1-.2 1.1-.7.1-.4-.3-.9-.7-1.5.1.2.1.4.1.6-.1.5-.6.8-1.1.7-.6-.1-1.5-.9-2.4-1.9l-.7 3.4c.2.2.4.4.7.6l.6-3.1zm-27.1-9.6l.1 1.8c.6-1.4 1.3-2.1 2.4-2.2.3 0 .6 0 .9.2-.4-.6-1-.9-1.7-.9-.8 0-1.4.4-1.8 1.1h.1zm-2.7 11.2l-.4-9.8-.8-1.3 3.2-.1-.1-.8-3.9.2.8 1.3.4 9.8-.7 1.4 1.2-.1.3-.6zm4.6.4l-.3-7c0-.8-.3-1.1-.7-1.1h-.1v.4l.3 7.8.8-.1zm8.4-11.6l-.1 1.9c.7-1.4 1.4-2 2.5-2 .3 0 .6.1.9.2-.4-.7-.9-1-1.7-1a2.32 2.32 0 0 0-1.9.9h.3zM39 22.7l.3-9.8-.7-1.4 3.2.1v-.8l-3.9-.1.7 1.4-.3 9.8-.6 1.3h1l.3-.5zm4.6.7l.2-7c0-.8-.2-1.2-.6-1.2h-.1v.4l-.2 7.8h.7zM14.8 18c-.4-2.2-1-3.6-2-3.9.5.7.9 1.8 1.1 3.3.4 2.6.2 4.3-1.2 4.6l.1.8c.5-.1.7-.1.7-.1 1.5-.4 1.7-2.1 1.3-4.7z"/><path d="M9.5 25.1l-2-11.8-1.2-1.4 3.9-.7c2.3-.4 4-.2 5.2.5-1.3-1.2-3.2-1.6-6.1-1.1l-3.9.7 1.2 1.4 2 11.8-.6 1.7 1.2-.2.3-.9zM52.2 18l.2 2.9 1.8-7.3-.5-1.3 3.6.3.6-.7-5-.4.6 1.3-1.3 5.2zm-4.4 8.4l1.3.1.7-.8.5-2.1-2-10.5-.9-1.4 3.9.4.4-.8-5-.4.8 1.4 2.1 10.5-.6 2.1"/></g><path d="M56.5 27.3c.5 0 1-.4 1-1 0-.5-.4-1-1-1-.5 0-1 .4-1 1a.94.94 0 0 0 1 1zm0-1.7a.68.68 0 0 1 .7.7.68.68 0 1 1-1.4 0c-.1-.4.3-.7.7-.7zm-.2.8h.2l.2.4h.3l-.3-.4c.2 0 .3-.1.3-.3 0-.1 0-.2-.1-.3-.1 0-.2-.1-.3-.1H56v1.1h.2v-.4h.1zm0-.2V26h.2c.1 0 .2 0 .2.1s0 .1-.2.1h-.2z" fill-rule="evenodd" fill="#EC1C24"/></svg>

<svg width="74" height="37" viewBox="0 0 74 37" fill="none" xmlns="http://www.w3.org/2000/svg">
<path d="M36.6 36L68 28.6L72.2 9.5L36.6 1L1 9.5L5.2 28.6" fill="#FFDD00"/>
<path d="M36.6 36.9L4.4 29.3L0 8.90001L36.6 0.100006L73.2 8.90001L68.8 29.3L36.6 36.9V36.9ZM5.9 27.9L36.6 35.2L67.3 27.9L71.2 10.2L36.6 1.80001L2 10.1L5.9 27.9V27.9Z" fill="#FDBD10"/>
<path d="M28.3 18.4C28.1 15.1 27.5 13.5 26.7 12.4C25.4 10.6 21.7 10 20.2 13C19.5 14.3 19.3 16.1 19.5 18.4C19.8 21.1 20.5 23.1 21.8 24.1C23.3 25.4 25.5 25.1 26.8 23.9C27.8 22.9 28.4 21.2 28.3 19L24.9 19.3C24.9 19.9 24.7 20.4 24.7 20.6C24.6 21 24.2 21.3 23.9 20.7C23.8 20.4 23.6 19.8 23.5 18.9L28.3 18.4V18.4ZM23.7 14.1C24.2 14.1 24.4 15.3 24.5 15.9L23.1 16C23.1 15.1 23.4 14.2 23.7 14.1V14.1ZM57.9 11.2C57.9 12.1 58.3 12.8 59.3 13.2C59.3 13.3 58.6 14.6 58.5 14.9C58.3 15.4 58.8 15.8 59.3 15.5C59.1 15.6 61.9 13.3 62.1 11.8V11.3C62 9.8 61 9 59.9 9C58.9 9 57.9 9.9 57.9 11.2" fill="#CF9810"/>
<path d="M37.7 22.5L37.4 14.3C37.3 10.9 35.4 10.6 34.7 10.7C33.9 10.7 33.2 11.1 32.7 11.7L31.5 11L27.5 11.2L28.6 13L29 22.6L28 24.5L33.1 24.3L32.8 16.1C32.8 15 33.3 15.2 33.4 16.1L33.7 24.2L38.5 24.1L37.7 22.5ZM67.1 18.4L67.9 14.4C66.3 13.2 65.3 12.8 63.9 12.8C61.4 12.8 59.8 14.7 59.8 16.7C59.8 18.3 60.8 19.4 61.7 20.7C61.7 20.7 62.2 21.4 62.3 21.6C62.6 22.1 62.2 22.5 61.7 22.4C61.3 22.3 60.2 21.6 59 20L58.1 24.6C59.5 26.1 61.4 26.3 62.2 26.3C64.8 26.3 66.6 24 66.6 21.9C66.6 20.5 66 19.4 64.8 18.1C64.8 18.1 64.3 17.5 64.2 17.3C63.7 16.6 64.2 16.2 64.6 16.3C65 16.4 66 17 67.1 18.4V18.4ZM9.99999 10.6L5.29999 11.4L6.89999 13.3L8.89999 24.8L7.99999 27.2L13.6 26.2C17.6 25.5 19.7 22.3 18.8 17.2C18 12.2 15.7 9.70001 9.99999 10.6ZM13 22.1L11.7 14.4H12C13 14.2 13.8 15.3 14.2 18C14.5 19.7 14.6 21.9 13.3 22.1H13ZM52.9 11.7L52.1 12.9L52.5 18.1L53.6 13.5L52.9 11.7L59 12.1L57.7 13.9L52.7 27.8L47.6 27.4L49.2 25.4L49.7 23.5L47.7 13.1L46.5 11.1" fill="#CF9810"/>
<path d="M47.1 22.2L47.3 14.7C47.4 12.3 46.4 10.9 44.8 10.9C44 10.9 43.3 11.2 42.7 11.8L41.9 11L37.8 10.9L38.8 12.8L38.5 22.4L37.5 24.2L42.4 24.4L42.6 16.2C42.6 15.2 43.2 15.3 43.2 16.2L43 24.4L48.4 24.7L47.1 22.2V22.2Z" fill="#CF9810"/>
<path d="M27.6 17.9C27.4 14.6 26.8 13 26 11.8C24.7 9.99999 21 9.39999 19.5 12.4C18.8 13.7 18.6 15.5 18.8 17.8C19.1 20.5 19.8 22.5 21.1 23.5C22.6 24.8 24.8 24.5 26.1 23.3C27.1 22.3 27.7 20.6 27.6 18.4L24.2 18.7C24.2 19.3 24 19.7 24 20C23.9 20.4 23.5 20.7 23.2 20.1C23.1 19.8 22.9 19.2 22.8 18.3L27.6 17.9V17.9ZM23 14C23.5 14 23.7 14.8 23.8 15.4L22.6 15.5C22.5 14.5 22.8 14 23 14ZM57.4 10.5C57.4 11.5 57.9 12.1 58.7 12.4C58.7 12.5 58.1 13.8 58 14.2C57.8 14.7 58.3 15.1 58.8 14.8C59.2 14.5 61.3 13.3 61.6 11.1V10.6C61.6 9.19999 60.6 8.29999 59.4 8.29999C58.4 8.29999 57.4 9.19999 57.4 10.5" fill="white"/>
<path d="M37 21.9L36.7 13.7C36.6 10.3 34.7 10 34 10.1C33.2 10.1 32.5 10.5 32 11.1V10.4L26.9 10.6L28 12.4L28.4 22L27.4 23.9L32.5 23.7L32.2 15.5C32.2 14.4 32.7 14.6 32.8 15.5L33.1 23.6L37.9 23.5L37 21.9ZM66.6 17.7L67.4 13.7C65.8 12.5 64.8 12.1 63.4 12.1C60.9 12.1 59.3 14 59.3 16C59.3 17.6 60.1 18.7 61.1 20C61.1 20 61.6 20.7 61.7 20.9C62 21.4 61.8 21.8 61.2 21.7C60.8 21.6 59.7 20.9 58.5 19.3L57.6 23.8C59 25.3 60.6 25.7 61.8 25.7C64.9 25.7 66.2 23.1 66.2 21.2C66.2 19.8 65.5 18.8 64.4 17.4C64.4 17.4 63.9 16.8 63.8 16.6C63.3 15.9 63.8 15.5 64.2 15.6C64.6 15.7 65.6 16.3 66.6 17.7ZM9.30001 10.1L4.60001 10.9L6.20001 12.8L8.20001 24.3L7.30001 26.6L12.9 25.6C17.3 24.9 19 21.8 18.1 16.6C17.3 11.7 14.9 9.20001 9.30001 10.1V10.1ZM12.3 21.6L11 13.9H11.3C12.3 13.7 13.1 14.8 13.5 17.5C13.8 19.2 13.9 21.4 12.6 21.6H12.3V21.6ZM52.4 11L51.4 12.7L51.9 17.6L53.1 12.8L52.3 11L58.8 11.5L57.2 13.3L52.2 27.2L47 26.7L48.7 24.7L49.1 22.8L47.1 12.4L45.9 10.4" fill="white"/>
<path d="M46.5 22.3L46.7 14.1C46.8 11.7 45.8 10.3 44.2 10.3C43.4 10.3 42.7 10.6 42.1 11.2V10.5L37 10.3L38 12.2L37.7 21.8L36.9 23.6L41.7 23.8L41.9 15.6C41.9 14.6 42.5 14.7 42.5 15.6L42.3 23.8L47.4 24.1L46.5 22.3V22.3Z" fill="white"/>
<path d="M23.8 24C21.3 24.2 19.6 22 19.3 17.8C18.9 13.6 20.2 11 22.6 10.8C25.3 10.6 26.8 12.5 27.2 16.6C27.2 16.9 27.3 17.2 27.3 17.5L22.3 18V18.5C22.5 20.2 22.9 21 23.6 21C24.1 21 24.5 20.2 24.5 19.2L27.1 19C27.2 21.9 25.9 23.8 23.8 24V24ZM24.3 15.8C24.2 14.3 23.7 13.5 23 13.6C22.4 13.7 22 14.5 22.2 16L24.3 15.8ZM58.5 14.4C58.4 14.5 58.3 14.5 58.5 14.4C58.7 13.7 59.3 12.2 59.3 12.2C59.2 12.2 59 12.1 58.8 12C57.8 11.6 57.8 10.4 57.8 10.2C57.9 9.4 58.6 8.5 59.7 8.7C60.7 8.8 61.3 9.7 61.2 11C60.8 13 59.5 13.7 58.5 14.4V14.4ZM61.2 22.1C61.8 22.2 62.2 21.9 62.3 21.4C62.4 21 61.9 20.3 61.4 19.7C60.2 18.1 59.5 16.9 59.8 15.3C60.2 13.3 62.1 12.1 64.3 12.5C65.2 12.7 66 13.1 66.9 13.8L66.3 16.7C65.6 15.9 64.8 15.2 64.2 15.1C63.3 14.9 62.7 15.8 63.4 16.7C63.6 17 63.8 17.2 64.1 17.5C65.4 19.1 66.1 20.1 65.7 21.9C65.2 24.3 63.2 25.5 60.7 25C59.7 24.8 58.9 24.3 58 23.5L58.7 20.1C59.7 21.3 60.6 22 61.2 22.1V22.1ZM37.2 23.2L36.6 22L36.3 13.7C36.2 11.5 35.4 10.4 34 10.5C32.9 10.5 32.2 11.2 31.6 12.7L31.5 10.8L27.6 11L28.4 12.3L28.8 22.1L28.1 23.5L32 23.3L31.7 15.6C31.7 14.8 32 14.4 32.4 14.3C32.8 14.3 33.1 14.6 33.1 15.4L33.4 23.2H37.2V23.2ZM9.29999 10.5L5.39999 11.2L6.59999 12.6L8.59999 24.4L7.99999 26.2L12.8 25.4C17 24.7 18.5 21.8 17.7 16.9C17 12.4 15.1 9.6 9.29999 10.5V10.5ZM12.7 21.9C12.6 21.9 12.5 21.9 12 22L10.6 13.5C11.1 13.4 11.3 13.4 11.3 13.4C12.7 13.2 13.6 14.7 14 17.3C14.3 20 14.1 21.7 12.7 21.9ZM57.9 11.9L52.9 11.5L53.5 12.8L51.7 20L50.9 12.6L51.7 11.3L46.7 10.9L47.5 12.3L49.6 22.8L49 24.9L47.8 26.4L51.9 26.7L56.8 13.1L57.9 11.9ZM46.8 23.6L46.1 22.4L46.3 14.1C46.4 11.9 45.6 10.8 44.2 10.7C43.1 10.7 42.3 11.3 41.7 12.7L41.8 10.8L37.9 10.7L38.6 12.1L38.3 21.9L37.7 23.2L41.4 23.3L41.6 15.6C41.6 14.8 42 14.4 42.4 14.4C42.8 14.4 43.1 14.8 43 15.6L42.8 23.4L46.8 23.6V23.6Z" fill="#EC1C24"/>
<path d="M23.9 14.3C24.1 14.7 24.2 15.2 24.2 15.8L23 15.9V16.7L25.1 16.5C25 15 24.6 14.3 23.9 14.3V14.3ZM23.7 20.9C23.6 20.9 23.6 20.9 23.7 20.9C23.8 21.4 24.2 21.6 24.5 21.6C25 21.6 25.4 20.8 25.4 19.8L27.1 19.6V18.8L24.5 19C24.5 20.1 24.2 20.9 23.7 20.9" fill="#B01117"/>
<path d="M20.1 18.5C19.7 14.3 21 11.7 23.4 11.5C24.2 11.4 25 11.6 25.6 11.9C24.8 11 23.8 10.7 22.6 10.8C20.1 11 18.9 13.6 19.3 17.8C19.6 20.8 20.5 22.7 21.9 23.5C20.9 22.5 20.3 20.8 20.1 18.5ZM58.4 11.1C58.5 10.3 59.2 9.4 60.3 9.6C60.6 9.6 60.9 9.8 61.1 9.9C60.9 9.2 60.4 8.8 59.7 8.7C58.7 8.5 58 9.4 57.8 10.2C57.8 10.4 57.8 11.4 58.4 11.8V11.1V11.1ZM60.1 13.2C60 13.2 59.2 12.8 59.1 12.8C58.9 13.3 58.5 14.1 58.4 14.5C58.4 14.5 58.4 14.6 58.5 14.5C59 14.1 60.1 13.2 60.1 13.2V13.2ZM61.1 19.3C60.5 18.3 60.2 17.4 60.4 16.3C60.8 14.3 62.7 13.1 64.9 13.5C65.5 13.6 66.2 13.9 66.8 14.3L66.9 13.9C66 13.2 65.1 12.8 64.3 12.6C62.1 12.1 60.2 13.3 59.8 15.4C59.6 16.8 60.1 17.9 61.1 19.3V19.3ZM59.4 21.2C60.2 22.2 61.2 22.9 61.8 23.1C62.4 23.2 62.8 22.9 62.9 22.4C63 22 62.6 21.5 62.2 20.9C62.3 21.1 62.3 21.3 62.3 21.5C62.2 22 61.7 22.3 61.2 22.2C60.6 22.1 59.7 21.3 58.8 20.3L58.1 23.7C58.3 23.9 58.5 24.1 58.8 24.3L59.4 21.2ZM32.3 11.6L32.4 13.4C33 12 33.7 11.3 34.8 11.2C35.1 11.2 35.4 11.2 35.7 11.4C35.3 10.8 34.7 10.5 34 10.5C33.2 10.5 32.6 10.9 32.2 11.6H32.3V11.6ZM29.6 22.8L29.2 13L28.4 11.7L31.6 11.6L31.5 10.8L27.6 11L28.4 12.3L28.8 22.1L28.1 23.5L29.3 23.4L29.6 22.8ZM34.2 23.2L33.9 16.2C33.9 15.4 33.6 15.1 33.2 15.1H33.1V15.5L33.4 23.3L34.2 23.2V23.2ZM42.6 11.6L42.5 13.5C43.2 12.1 43.9 11.5 45 11.5C45.3 11.5 45.6 11.6 45.9 11.7C45.5 11 45 10.7 44.2 10.7C43.4 10.7 42.8 11 42.3 11.6H42.6V11.6ZM39 22.7L39.3 12.9L38.6 11.5L41.8 11.6V10.8L37.9 10.7L38.6 12.1L38.3 21.9L37.7 23.2H38.7L39 22.7ZM43.6 23.4L43.8 16.4C43.8 15.6 43.6 15.2 43.2 15.2H43.1V15.6L42.9 23.4H43.6ZM14.8 18C14.4 15.8 13.8 14.4 12.8 14.1C13.3 14.8 13.7 15.9 13.9 17.4C14.3 20 14.1 21.7 12.7 22L12.8 22.8C13.3 22.7 13.5 22.7 13.5 22.7C15 22.3 15.2 20.6 14.8 18Z" fill="#B01117"/>
<path d="M9.49999 25.1L7.49999 13.3L6.29999 11.9L10.2 11.2C12.5 10.8 14.2 11 15.4 11.7C14.1 10.5 12.2 10.1 9.29999 10.6L5.39999 11.3L6.59999 12.7L8.59999 24.5L7.99999 26.2L9.19999 26L9.49999 25.1V25.1ZM52.2 18L52.4 20.9L54.2 13.6L53.7 12.3L57.3 12.6L57.9 11.9L52.9 11.5L53.5 12.8L52.2 18ZM47.8 26.4L49.1 26.5L49.8 25.7L50.3 23.6L48.3 13.1L47.4 11.7L51.3 12.1L51.7 11.3L46.7 10.9L47.5 12.3L49.6 22.8L49 24.9" fill="#B01117"/>
<path fill-rule="evenodd" clip-rule="evenodd" d="M56.5 27.3C57 27.3 57.5 26.9 57.5 26.3C57.5 25.8 57.1 25.3 56.5 25.3C56 25.3 55.5 25.7 55.5 26.3C55.5 26.9 55.9 27.3 56.5 27.3ZM56.5 25.6C56.9 25.6 57.2 25.9 57.2 26.3C57.2 26.7 56.9 27 56.5 27C56.1 27 55.8 26.7 55.8 26.3C55.7 25.9 56.1 25.6 56.5 25.6ZM56.3 26.4H56.5L56.7 26.8H57L56.7 26.4C56.9 26.4 57 26.3 57 26.1C57 26 57 25.9 56.9 25.8C56.8 25.8 56.7 25.7 56.6 25.7H56V26.8H56.2V26.4H56.3ZM56.3 26.2V26H56.5C56.6 26 56.7 26 56.7 26.1C56.7 26.2 56.7 26.2 56.5 26.2H56.3Z" fill="#EC1C24"/>
</svg>
